!!!OTL: Der J&auml;ger und das M&auml;gdelein (2c), S. 31
!!!id: T0102
**kern
*clefG2
*k[f#]
*G:
{8g
=1
8g
4g
8g
=2yy
8a
=3
4b
8a
8g
=4
8g
8e
8e
8e
=5
4e}
=6
{8e
8e
=7
8g
8g
8f#
8g
=8
4a
4f#
=9
4g
8d
8d
=10
4d}
=11
{4d
=12
4b
8b
8b
=13
4b
4dd
=14
8b
8b
8cc
8b
=15
4a}
=16
{8d
8d
=17
8d
8d
8d
8a
=18
4a
4a
=19
4cc
8f#
8a
=20
4g}
4r
==
*-
!!!minrhy: 8
!!!meters: 2/4 ]  ZZ[4
!!!cut: Der J&auml;ger und das M&auml;gdelein (2c), S. 31
!!!reg: Luxemburg
!!!trd: Singendes Volk, Esch-Alzette 1937 posth.
!!!rhy1:   X_XX  X_XX  XXXX  X_
!!!rhy2: XX  XXXX  X_X_  X_XX  X_
!!!key: T0102  08  G 2/4 ]  ZZ[4
!!!mod: HEPTATONIK IONISCH]  AMBITUS[8
!!!kad: -6-521
!!!akz: 131-6_121-5_3332_-5241_
!!!fot: 'a__b__c__d__
!!!for: 'a__b__c__bv_
!!!fok: '^d_^d_^a_^a_
!! PHRAS[VORWIEGEND AUFTAKTIG]
!!!fkt: "erz&auml;hlende Lieder"
!!!bem1: JUNGLINSTER, gesungen vom Gemeindewegew&auml;rter, hhh
!!!bem2: Valentin Santer
!! THILL, Mathias:
!! PR[26] 2K[0] 2G[11] 3K[11] 3G[4] 4A[7] 4Ü[0] 5A[0] 6K[0] 6G[0]
!! 7K[0] 7G[0] 8A[0] MEHR[0] SI[33] ABS[27] SR[11] SP[22]
!! ST[12] 2k[11] 2g[22] 3k[0] 3g[4] 4d[4] 4ü[0] 5d[0] 6k[0] 6g[0]
!! 7k[0] 7g[0] 8d[0] mehr[0] si[41] dm[-8] sr[33] sp[7]
!! 1F[36] 2F[57] 3F[0] 4F[0] LF[0] 2P[7] 3P[0] 4P[0] TRI[0] DF[3] AB[28]
!! TF[0] U3K[0] U3[4] U4[4] U4Ü[0] U5[25] U6K[0] U6[11] U7K[0] U7[4]
!! N1[29] N2K[0] N2[11] N3K[0] N3[11] N4[4] N4Ü[0] N5[0] N6K[0] N6[0]
!!!n7k: 0] N7[0] O1[0] O2K[0] O2[0] O3K[0] O3[0] HÖ[0
!!!RNB: symbol: &auml;      = a umlaut  (UTF-8: Å„)
